X: 152
T: Sally There's a Bug On Me
B: canberra pickers and fiddlers
B: old time tunes update
B: tunes
M:4/4
L:1/8
Q: 1/4=100
K:D
V:1 
"D"A3 d fg fe|d2 F2 A3 d|"A7"c2 E2 G3 B|"D"A2 D2 F4|!
"D"A3 d fg fe|d2 F2 A3 d|"A7"c2 A2 B2 c2|"D"d4 d4:||
||:"A"e3 f e3 f|e2 a2 e4|"E7"b2 ba f2 fg|"A"a2 c2 e4|!
"A"e3 f e3 f|e2 a2 e4|"Bm"b2 ba f2 "E7"g2|"A"a4 a4:||
% abcbook-tune_id 67a7d9ece95fd04145d3f737
% abcbook-tune_composer_id 
% abcbook-link-0 https://www.youtube.com/watch?v=iXG-ugmJlIE
% abcbook-link-title-0 Sally, There&#39;s A Bug on Me!
% abcbook-link-start-at-0 8
% abcbook-boost 0
% abcbook-difficulty 0
% abcbook-tags old time tunes
% abcbook-tablature 
% abcbook-transpose 
% abcbook-tuning ADAE
% abcbook-lastupdated 1739234267199
% abcbook-src-url 
% abcbook-soundfonts 
% abcbook-repeats 1
% <A name="D1X119">
% Titles One title
% Transcriptions Only 1 transcription
% Mode major
% Key A
% Key D
% Time_signature 4/4
% Has_accompaniment_chords Has chords

